X:1
T:Ahi traditor
T:Ah, traditor 
T:Enrico Radesca di Foggia
T:Source : Canzonette, madrigali & arie---Libro I---Milano---Heredes S.Tini & F.Lomazzi---1606. Editor : André Vierendeels (18/03/14).
C:Enrico Radesca di Foggia
%%score [ 1 2 ] 3
L:1/8
Q:1/4=105
M:4/4
K:F
V:1 treble nm="Soprano" snm="S"
V:2 bass nm="Bass" snm="B"
V:3 bass nm="MusicXML Part"
V:1
 d6 cB | AdcB AdcB | A2 G2 A4 |[M:3/2] G12 | d4 ^c4 c4 | d8 d4 | f4 e4 e4 |[M:4/4] d4 d4 | d8 | %9
w: Ah, tra- di-|tor, ahi tra- di- tor, ah tra- di-|tor che fa-|i?|Non strin- ger|tan- to,|non strin- ger|tan- to,|ohi|
w: Ah, dis- le-|al' a- man- * te, ah dis- le-|al a- man-|te,|Fu'l tuo de-|si- o,|fu'l tuo de-|si- o|mi|
 B8 | z2 _e2 e2 d2 | c6 B2 | B4 A4 | G8 :: G8 | ^F2 F2 F2 G2 | A4 A2 F2 | E2 D2 E2 E2 | D4 D4 | %19
w: me,|ohi me deh|fer- m'al|quan- *|to,|hor-|su non tant' in-|an- ti, no|vo- glio che ten'|van- ti,|
w: rar,|mi- rar il|vol- to|mi- *|o,|hor|per- che por- mi'a|pie- no l'ar-|di- to man in|se- no?|
 z2 B2 d3 c | B2 c2 c4 | BBde f4 | z FAB c4 | z GBc ddcd | _eeed c2 B2 | A8 | G8 :| %27
w: si si ti|ba- st'as- sa-|i, ah tra- di- tor,|ah tra- di- tor,|ah tra- di- tor, ah tra- di-|tor, ah tra- di- tor che|fa-|i?|
w: non mi ba-|ciar ahi, ah-|i,- * * * *||||||
V:2
 B,6 F,G, | D,B,F,G, D,B,F,G, | D,2 _E,2 D,4 |[M:3/2] G,,12 | B,4 A,4 A,4 | D,8 D,4 | D,4 A,4 A,4 | %7
w: Ah, tra- di-|tor, ahi tra- di- tor, ah- tra- di-|toe che fa-|i?|Non strin- ger|tan- to,|non strin- ger|
w: ah, dis- le-|al' a- man- * te, ah dis- le-|al a- man-|te,|Fu'l tuo de-|si- o,|fu'l tuo de-|
[M:4/4] D,4 D,4 | D,8 | G,,4 G,4 | _E,6 B,,2 | C,4 C,4 | D,8 | G,,8 :: G,8 | D,2 D,2 D,2 _E,2 | %16
w: tan- to,|ohi|me, ohi|me deh|fer- ma'l|quan-|to,|hor-|su non tant' in-|
w: si- o,|mi|rar, mi-|rar il|vol- to|mi-|o,|hor|per- che por- mi'a|
 D,4 D,2 D,2 | A,,2 B,,2 A,,2 A,,2 | D,4 D,4 | z2 G,2 B,3 F, | G,2 _E,2 F,4 | B,,4 z B,,D,E, | %22
w: an- ti, no|vo- glio ch ten'|van- ti,|si si ti|ba- st'as- sai-|i, ah tra- di-|
w: pie- no l'ar-|di- to man in|se- no?|non mi be-|ciar ahi, ah-|i, * * *|
 F,4 z C,E,F, | G,4 z F,_E,D, | C,C,C,B,, A,,2 G,,2 | D,8 | G,,8 :| %27
w: tor, ah tra- di-|tor, ah tra- di-|tor, ah tra- di- tor che|fa-|i?|
w: |||||
V:3
 B,6 F,2 | D,2 F,2 D,2 F,2 | D,2 _E,2 D,4 |[M:3/2] G,,12 | B,4 A,8 | D,12 | D,4 A,8 |[M:4/4] D,8 | %8
 D,8 | G,8 | _E,6 B,,2 | C,8 | D,8 | G,,8 :: G,8 | D,6 _E,2 | D,6 D,2 | A,,2 B,,2 A,,4 | D,8 | %19
 G,4 B,3 F, | G,2 _E,2 F,4 | B,,8 | F,8 | G,4 D,4 | C,4 A,,2 G,,2 | D,8 | G,,8 :| %27

